X:62
T: Das Maedchen und die Hasel
N: A0065
O: Europa, Mitteleuropa, Deutschland
N: Melodie Zeile eins und zwei bei Schmeltzel 1544 Quodlibet 19 (vgl.
N: A0054, diese Angabe kann nicht stimmen!), Zeile drei und vier
N: von Boehme ergaenzt.
R: Romanze, Ballade, Lied
M: 4/2
L: 1/2
K: F
FFF | ccff | e2z
c | BAGF | cf2e | d2c2 | z
ccc | AAdd | c2z
c | dcAG | FB2A | G2F2 | z

